SVG_Azure_All/Education.svg

<?xml version="1.0" encoding="UTF-8" standalone="no"?>
<!-- Generated by Microsoft Visio, SVG Export Education.svg Page-1 -->

<svg
   xmlns:dc="http://purl.org/dc/elements/1.1/"
   xmlns:cc="http://creativecommons.org/ns#"
   xmlns:rdf="http://www.w3.org/1999/02/22-rdf-syntax-ns#"
   xmlns:svg="http://www.w3.org/2000/svg"
   xmlns="http://www.w3.org/2000/svg"
   xmlns:sodipodi="http://sodipodi.sourceforge.net/DTD/sodipodi-0.dtd"
   xmlns:inkscape="http://www.inkscape.org/namespaces/inkscape"
   width="0.7897827in"
   height="0.62999463in"
   viewBox="0 0 56.864353 45.359777"
   xml:space="preserve"
   class="st5"
   version="1.1"
   id="svg46"
   sodipodi:docname="Education.svg"
   style="font-size:12px;overflow:visible;color-interpolation-filters:sRGB;fill:none;fill-rule:evenodd;stroke-linecap:square;stroke-miterlimit:3"
   inkscape:version="0.92.5 (2060ec1f9f, 2020-04-08)"><metadata
   id="metadata50"><rdf:RDF><cc:Work
       rdf:about=""><dc:format>image/svg+xml</dc:format><dc:type
         rdf:resource="http://purl.org/dc/dcmitype/StillImage" /></cc:Work></rdf:RDF></metadata><sodipodi:namedview
   pagecolor="#ffffff"
   bordercolor="#666666"
   borderopacity="1"
   objecttolerance="10"
   gridtolerance="10"
   guidetolerance="10"
   inkscape:pageopacity="0"
   inkscape:pageshadow="2"
   inkscape:window-width="640"
   inkscape:window-height="480"
   id="namedview48"
   showgrid="false"
   inkscape:zoom="2.1095237"
   inkscape:cx="37.899045"
   inkscape:cy="10.588695"
   inkscape:window-x="0"
   inkscape:window-y="0"
   inkscape:window-maximized="0"
   inkscape:current-layer="svg46" />
	<style
   type="text/css"
   id="style2">
	<![CDATA[
		.st1 {fill:#773adc;stroke:none;stroke-linecap:butt;stroke-width:1.73864}
		.st2 {fill:url(#grad0-8);stroke:none;stroke-linecap:butt;stroke-width:1.73864}
		.st3 {fill:#50e6ff;stroke:none;stroke-linecap:butt;stroke-width:1.73864}
		.st4 {fill:#552f99;stroke:none;stroke-linecap:butt;stroke-width:1.73864}
		.st5 {fill:none;fill-rule:evenodd;font-size:12px;overflow:visible;stroke-linecap:square;stroke-miterlimit:3}
	]]>
	</style>

	<defs
   id="Patterns_And_Gradients">
		<linearGradient
   id="grad0-8"
   x1="-0.055925729"
   y1="76.101748"
   x2="40.754051"
   y2="76.101748"
   gradientTransform="scale(1.3933985,0.71766976)"
   gradientUnits="userSpaceOnUse">
			<stop
   offset="0.13"
   stop-color="#773adc"
   stop-opacity="1"
   id="stop4" />
			<stop
   offset="0.23"
   stop-color="#8249e2"
   stop-opacity="1"
   id="stop6" />
			<stop
   offset="0.43"
   stop-color="#9664ec"
   stop-opacity="1"
   id="stop8" />
			<stop
   offset="0.6"
   stop-color="#a274f2"
   stop-opacity="1"
   id="stop10" />
			<stop
   offset="0.74"
   stop-color="#a67af4"
   stop-opacity="1"
   id="stop12" />
		</linearGradient>
	</defs>
	<g
   id="g44"
   transform="translate(-5.5914878,-4.5345237)">
		<title
   id="title16">Page-1</title>
		<g
   id="group5532-1"
   transform="translate(5.66929,-34.0157)">
			<title
   id="title18">Education</title>
			<g
   id="group5533-2">
				<title
   id="title20">Sheet.5533</title>
				<g
   id="shape5534-3"
   transform="translate(11.4407)">
					<title
   id="title22">Sheet.5534</title>
					<path
   d="M 34.21,60.57 H 0 v 15.85 c 0,4.12 7.66,7.49 17.28,7.49 9.63,0 17.28,-3.27 17.28,-7.49 z"
   class="st1"
   id="path24"
   inkscape:connector-curvature="0"
   style="fill:#773adc;stroke:none;stroke-width:1.73863995;stroke-linecap:butt" />
				</g>
				<g
   id="shape5535-5"
   transform="translate(0,-16.0657)">
					<title
   id="title27">Sheet.5535</title>
					<path
   d="M 26.4,54.93 0.99,68.3 a 2.25555,2.32071 -180 0 0 -0.8,3.07 1.96946,2.02635 -180 0 0 0.8,0.92 L 26.4,83.66 a 2.95549,3.04086 -180 0 0 2.32,0 L 55.66,72.22 a 2.28693,2.35299 -180 0 0 0.89,-3.07 2.00165,2.05947 -180 0 0 -0.89,-0.98 L 28.79,54.87 a 2.73215,2.81107 -180 0 0 -2.39,0.06 z"
   class="st2"
   id="path29"
   inkscape:connector-curvature="0"
   style="fill:url(#grad0-8);stroke:none;stroke-width:1.73863995;stroke-linecap:butt" />
				</g>
				<g
   id="shape5536-9"
   transform="translate(26.7528,-10.8511)">
					<title
   id="title32">Sheet.5536</title>
					<path
   d="M 23.32,76 A 4.0041,4.11977 -180 0 0 22.59,74.3 16.4883,16.9646 -180 0 0 14.58,67.01 L 3.53,62.27 0,64.85 11.12,69.72 a 16.0426,16.506 0 0 1 8.64,8.69 25.0195,25.7423 0 0 1 0.89,5.5 z m -2.16,7.91 1.33,-2.72 1.69,2.23 h 0.31 A 15.8841,16.343 -180 0 0 23.29,76 Z"
   class="st3"
   id="path34"
   inkscape:connector-curvature="0"
   style="fill:#50e6ff;stroke:none;stroke-width:1.73863995;stroke-linecap:butt" />
				</g>
				<g
   id="shape5537-11"
   transform="translate(23.8934,-28.7625)">
					<title
   id="title37">Sheet.5537</title>
					<path
   d="m 4.26,83.91 c 2.35,0 4.25,-1 4.25,-2.23 0,-1.22 -1.9,-2.22 -4.25,-2.22 -2.35,0 -4.26,1 -4.26,2.22 0,1.23 1.91,2.23 4.26,2.23 z"
   class="st4"
   id="path39"
   inkscape:connector-curvature="0"
   style="fill:#552f99;stroke:none;stroke-width:1.73863995;stroke-linecap:butt" />
				</g>
			</g>
		</g>
	</g>
</svg>

<?xml version="1.0" encoding="UTF-8" standalone="no"?>
<!DOCTYPE svg PUBLIC "-//W3C//DTD SVG 1.1//EN" "http://www.w3.org/Graphics/SVG/1.1/DTD/svg11.dtd">
<!-- Generated by Microsoft Visio, SVG Export Education.svg Page-1 -->
<svg xmlns="http://www.w3.org/2000/svg" xmlns:xlink="http://www.w3.org/1999/xlink" xmlns:ev="http://www.w3.org/2001/xml-events"
		width="0.944882in" height="1.16535in" viewBox="0 0 68.0315 83.9055" xml:space="preserve" color-interpolation-filters="sRGB"
		class="st5">
	<style type="text/css">
	<![CDATA[
		.st1 {fill:#773adc;stroke:none;stroke-linecap:butt;stroke-width:1.73864}
		.st2 {fill:url(#grad0-8);stroke:none;stroke-linecap:butt;stroke-width:1.73864}
		.st3 {fill:#50e6ff;stroke:none;stroke-linecap:butt;stroke-width:1.73864}
		.st4 {fill:#552f99;stroke:none;stroke-linecap:butt;stroke-width:1.73864}
		.st5 {fill:none;fill-rule:evenodd;font-size:12px;overflow:visible;stroke-linecap:square;stroke-miterlimit:3}
	]]>
	</style>

	<defs id="Patterns_And_Gradients">
		<linearGradient id="grad0-8" x1="0" y1="0" x2="1" y2="0" gradientTransform="rotate(90 0.5 0.5)">
			<stop offset="0.13" stop-color="#773adc" stop-opacity="1"/>
			<stop offset="0.23" stop-color="#8249e2" stop-opacity="1"/>
			<stop offset="0.43" stop-color="#9664ec" stop-opacity="1"/>
			<stop offset="0.6" stop-color="#a274f2" stop-opacity="1"/>
			<stop offset="0.74" stop-color="#a67af4" stop-opacity="1"/>
		</linearGradient>
	</defs>
	<g>
		<title>Page-1</title>
		<g id="group5413-1" transform="translate(5.66929,-34.0157)">
			<title>Education</title>
			<g id="group5414-2">
				<title>Sheet.5414</title>
				<g id="shape5415-3" transform="translate(11.4407,1.42109E-14)">
					<title>Sheet.5415</title>
					<path d="M34.21 60.57 L0 60.57 L0 76.42 C0 80.54 7.66 83.91 17.28 83.91 C26.91 83.91 34.56 80.64 34.56 76.42
								 L34.21 60.57 Z" class="st1"/>
				</g>
				<g id="shape5416-5" transform="translate(0,-16.0657)">
					<title>Sheet.5416</title>
					<path d="M26.4 54.93 L0.99 68.3 A2.25555 2.32071 -180 0 0 0.19 71.37 A1.96946 2.02635 -180 0 0 0.99 72.29 L26.4
								 83.66 A2.95549 3.04086 -180 0 0 28.72 83.66 L55.66 72.22 A2.28693 2.35299 -180 0 0 56.55 69.15 A2.00165
								 2.05947 -180 0 0 55.66 68.17 L28.79 54.87 A2.73215 2.81107 -180 0 0 26.4 54.93 L26.4 54.93 Z"
							class="st2"/>
				</g>
				<g id="shape5417-9" transform="translate(26.7528,-10.8511)">
					<title>Sheet.5417</title>
					<path d="M23.32 76 A4.0041 4.11977 -180 0 0 22.59 74.3 A16.4883 16.9646 -180 0 0 14.58 67.01 L3.53 62.27 L0 64.85
								 L11.12 69.72 A16.0426 16.506 0 0 1 19.76 78.41 A25.0195 25.7423 0 0 1 20.65 83.91 L23.32 76 ZM21.16
								 83.91 L22.49 81.19 L24.18 83.42 L24.49 83.42 A15.8841 16.343 -180 0 0 23.29 76 L21.16 83.91 Z"
							class="st3"/>
				</g>
				<g id="shape5418-11" transform="translate(23.8934,-28.7625)">
					<title>Sheet.5418</title>
					<path d="M4.26 83.91 C6.61 83.91 8.51 82.91 8.51 81.68 C8.51 80.46 6.61 79.46 4.26 79.46 C1.91 79.46 0 80.46
								 0 81.68 C0 82.91 1.91 83.91 4.26 83.91 Z" class="st4"/>
				</g>
			</g>
		</g>
	</g>
</svg>
